!!!COM: Gabriel Faure/
!!!CNT: Francais
!!!TXO: Francais
!!!OTL: "Soir"
!!!LYR: Samain
!!!OPR: 
!!!OPS: Op. 83
!!!ONM: No. 2
!!!ENC: Emily Thomas
!!!YOR: CD Sheet Music French Art Songs, The Ultimate Collection
!!!YOR: CD Sheet Music, LLC 2003
!!!ODT: 1894/
!!NB: Vocal melody and text encoded.
**kern	**silbe
=1	=1
*clefG2	*
*k[b-e-a-d-g-]	*
*M3/4	*
*MM[Andante]	*
2.r	.
=2	=2
8r	.
{8f	{Voi-
4f	-ci
8f	que
16c	les
16c	jar-
=3	=3
8d-	dins
16e-	de
16e-	la
4f	nuit
8.g-	vont
16a-	fleu-
=4	=4
2a-}	-rir.}
8r	.
16r	.
{16f	{Les
=5	=5
8.a-	li-
16a-	-gnes,
16g-	les
16g-	cou-
[8b-	-leurs,
8b-]}	|}
16r	.
{16a-	{les
=6	=6
[4cc-	sons
8.cc-]	|
16b-	de-
8.b-	-vien-
16a-	-nent
=7	=7
4a-	va-
8f}	-gues;}
8r	.
{4f	{Vois!
=8	=8
16e-	le
16e-	der-
16gn	-nier
16gn	ra-
8f	-yon
16an	a-
16an	-go
8a-	-nise
16cc	a\
16cc	tes
=9	=9
4b-	ba-
[4a-	-gues,
8a-]}	|}
16r	.
{16a-	{Ma
=10	=10
4b--	soeur,
8b--	en-
16cc-	-tend
16cc-	stu
[4dd-	pas
=11	=11
8dd-]	|
16dd-	quel-
16dd-	-que
4dd-	cho-
8.a-	-se
16a-	mou-
=12	=12
[4a-	-rir?
8a-]}	|}
8r	.
{8dd-	{Mets
16cc	sur
16cc	mon
=13	=13
8b-	front
16a-	tes
16a-	mains
8g-	frai^-
8f-	-ches
8e--	comme
16f	une
16g-	eau
=14	=14
4a-	pu-
8a-}	-re,}
8r	.
{8dd-	{Mets
16cc	sur
16cc	mes
=15	=15
8b-	yeux
16a-	tes
16a-	mains
8g-	dou-
8f-	-ces
8e--	com-
16f-	-me
16g-	des
=16	=16
[4a-	fleurs,
8a-]}	|}
8r	.
{8dd#	{Et
16cc#	que
16cc#	mon
=17	=17
8bn	a&me
8ddn	ou\
16b-	vit
16b-	le
16a-	gou^t
16a-	se-
8.g-	-cret
16f-	des
=18	=18
[4e-	pleurs.
8e-]}	|}
8r	.
{[4e-	{Soit
=19	=19
8e-]	|
16e-	comme
16e-	un
8.en	lys
16f#	fi-
8.g#	-de\le
16g#	et
=20	=20
2bn	pa^le
12gn	a\
12an	ta
12b-	cein-
=21	=21
2cc	-tu-
[4a-	-re!
=22	=22
4a-]}	|}
4r	.
4r	.
=23	=23
{8f	{C'est
16f	la
16f	pi-
4.f	-tie
8c	qui
=24	=24
8d-	pose
8e-	ain-
8f	-si
8f	son
8.g-	doigt
16a-	sur
=24	=24
[4a-	nous,
16a-]}	|}
16r	.
{8a-	{Et
16cc-	tout
16c-	ce
16b-	que
16b-	la
=25	=25
4a-	terre
8a-	a
16g-	de
16g-	sou-
8.a-	-pirs
16b-	qui
=26	=26
4cc	mon-
4.b-}	-tent.}
{8ee-	{Il
=27	=27
4.ee-	sem-
8dd-	-ble,
8cc-	qu'a\
8a-	mon
=28	=28
8an	Coeur
16bn	en-
16bn	-i-
4.cc#}	-vre/,}
{16cc#	{le
16cc#	ra-
=29	=29
4ff#	-con-
4.een	-tent
8ee--	Tes
=30	=30
4.ee--	yeux
8dd-	le-
8a-	-ve/s
8f	au
=31	=31
[2ee-	ciel,
8ee-]	|
8dd-	si
=32	=32
2dd-	tris-
[4a-	-tes
=33	=33
8a-]}	|}
8r	.
{4.f-	{et
8a-	si
=34	=34
[2.a-	doux!
=35	=35
2.a-_	|
=36	=36
4a-]}	|}
4r	.
4r	.
==	==
*-	*-
